X:4
T:Mo Ghile Mear
R:Slow Air
Z:Transcribed 1 July, 2010 by Stephen Beitzel
C:Trad., Arr. Adam Blaine
M:4/4
L:1/8
Q:"88 bpm"
K:D
[| {g}A3{d}A {e}A2 B2 | {g}d2<e2 {g}f4 | {gf}g2 fe {gfg}f3 e | {g}d2<B2 {G}A4 |
| {Gdc}d3c {gBd}B2 {G}A2 | {Gdc}d2 e2 {g}f2 {gf}g2 | {ag}a4 {GdG}a2 {e}f2 | {gef}e3 d{gdG}d4 ||
| {g}f2 a2{g}a3 f | {gef}e2 d2 {gdG}d3 e | {g}f2a2{g}a3f | {g}ef/e/ d2 {gef}e4 |
| {Gdc}d3c {gBd}B2 {G}A2 | {Gdc}"   marked"d2 e2 {g}f2 {gf}g2 | {ag}a4 {GdG}a2 {e}f2 | {gef}e3 d{gdG}"  jig tempo"d4 |]
